public/static/icons/editor/colorpicker.svg

<svg height="24" viewBox="0 0 24 24" width="24" xmlns="http://www.w3.org/2000/svg"><path d="m19.8008251 5.91738011c-1.01377-.46080454-2.0275399-.73728726-3.1334708-.73728726-1.4745746 0-2.7648273.46080454-3.9629191.82944817-.7372872.27648272-1.4745745.46080453-2.0275399.46080453-.3686436 0-.5529655-.0921609-.6451264-.27648272 0-.09216091.0921609-.55296544.1843218-.82944816.2764828-.82944817.5529655-1.84321815-.1843218-2.85698813-.46080451-.55296545-1.19809177-.92160908-2.02753994-.92160908-.82944816 0-1.56673542.27648272-2.30402268.73728726-2.94914904 2.02753996-4.70020628 5.43749354-4.70020628 9.03176888 0 6.0826199 4.976689 11.0593089 11.0593089 11.0593089 4.8845281 0 9.3082516-3.3177926 10.6906653-8.1101598.0921609-.5529655 1.3824136-6.26694172-2.9491491-8.38664259zm-16.03599788 5.43749349c0-1.0137699.82944817-1.8432181 1.84321815-1.8432181s1.84321815.8294482 1.84321815 1.8432181c0 1.01377-.82944817 1.8432182-1.84321815 1.8432182s-1.84321815-.8294482-1.84321815-1.8432182zm4.14724084 6.4512636c-1.01376998 0-1.84321815-.8294482-1.84321815-1.8432182s.82944817-1.8432181 1.84321815-1.8432181 1.84321815.8294481 1.84321815 1.8432181-.82944817 1.8432182-1.84321815 1.8432182zm5.06884994 1.8432181c-1.01377 0-1.8432182-.8294482-1.8432182-1.8432181 0-1.01377.8294482-1.8432182 1.8432182-1.8432182 1.0137699 0 1.8432181.8294482 1.8432181 1.8432182 0 1.0137699-.8294482 1.8432181-1.8432181 1.8432181zm3.6864363-5.5296544c-1.5667355 0-2.7648273-1.1980918-2.7648273-2.7648273 0-1.56673538 1.1980918-2.76482717 2.7648273-2.76482717 1.5667354 0 2.7648272 1.19809179 2.7648272 2.76482717 0 1.5667355-1.1980918 2.7648273-2.7648272 2.7648273z" fill-rule="evenodd"/></svg>

<svg xmlns="http://www.w3.org/2000/svg" width="24" height="24" viewBox="0 0 24 24">
  <path fill-rule="evenodd" d="M19.8008251,5.91738011 C18.7870551,5.45657557 17.7732852,5.18009285 16.6673543,5.18009285 C15.1927797,5.18009285 13.902527,5.64089739 12.7044352,6.00954102 C11.967148,6.28602374 11.2298607,6.47034555 10.6768953,6.47034555 C10.3082517,6.47034555 10.1239298,6.37818465 10.0317689,6.19386283 C10.0317689,6.10170192 10.1239298,5.64089739 10.2160907,5.36441467 C10.4925735,4.5349665 10.7690562,3.52119652 10.0317689,2.50742654 C9.57096439,1.95446109 8.83367713,1.58581746 8.00422896,1.58581746 C7.1747808,1.58581746 6.43749354,1.86230018 5.70020628,2.32310472 C2.75105724,4.35064468 1,7.76059826 1,11.3548736 C1,17.4374935 5.976689,22.4141825 12.0593089,22.4141825 C16.943837,22.4141825 21.3675605,19.0963899 22.7499742,14.3040227 C22.8421351,13.7510572 24.1323878,8.03708098 19.8008251,5.91738011 Z M3.76482722,11.3548736 C3.76482722,10.3411037 4.59427539,9.5116555 5.60804537,9.5116555 C6.62181535,9.5116555 7.45126352,10.3411037 7.45126352,11.3548736 C7.45126352,12.3686436 6.62181535,13.1980918 5.60804537,13.1980918 C4.59427539,13.1980918 3.76482722,12.3686436 3.76482722,11.3548736 Z M7.91206806,17.8061372 C6.89829808,17.8061372 6.06884991,16.976689 6.06884991,15.962919 C6.06884991,14.949149 6.89829808,14.1197009 7.91206806,14.1197009 C8.92583804,14.1197009 9.75528621,14.949149 9.75528621,15.962919 C9.75528621,16.976689 8.92583804,17.8061372 7.91206806,17.8061372 Z M12.980918,19.6493553 C11.967148,19.6493553 11.1376998,18.8199071 11.1376998,17.8061372 C11.1376998,16.7923672 11.967148,15.962919 12.980918,15.962919 C13.9946879,15.962919 14.8241361,16.7923672 14.8241361,17.8061372 C14.8241361,18.8199071 13.9946879,19.6493553 12.980918,19.6493553 Z M16.6673543,14.1197009 C15.1006188,14.1197009 13.902527,12.9216091 13.902527,11.3548736 C13.902527,9.78813822 15.1006188,8.59004643 16.6673543,8.59004643 C18.2340897,8.59004643 19.4321815,9.78813822 19.4321815,11.3548736 C19.4321815,12.9216091 18.2340897,14.1197009 16.6673543,14.1197009 Z"/>
</svg>
